X: 4743
T: Boys Of Ballycastle, The
R: hornpipe
M: 4/4
K: Gmajor
e/f/|g/>fe/>d e/>dB/>d/|e/>de/>g/ BA/G/|E/>FG/>A/ B/>AB/>d/|eA Ae/f/|
g/>fe/>d e/>dB/>d/|e/d/ (3e/f/g/ BA/G/|E/>FG/>A/ B/>dc/>A/|BG G2||
g/f/e/B/ B/>gf/>g/|eB Bg/f/|e/>de/>f g/>fg/>a/|be eg/a/|
b/a/g/f/ gf/e/|d/>Bd/>g/ BA/G/|E/F/G/A/ B/>dc/>A/|BG G||
D/G/|BB BA/G/|BB Bg|dB c/B/A/G/|EA AG/A/|
B/>AB/>d c/B/A/G/|Bd gg/a/|b/a/g/f/ a/g/f/e/|dB B||
B/c/|dB gB|dd dB/c/|dB gf/g/|aA AG/A/|
B/>AB/>d c/B/A/G/|Bd ga|b/a/g/f/ e/f/g/e/|dB B||

